docs/icons/dmzj.com.svg

<svg width="128" height="128" viewBox="0 0 128 128" fill="none" xmlns="http://www.w3.org/2000/svg">

<path d="M54.2798 104.365C61.5947 104.365 68.4902 96.3586 69.7978 93.252C61.7147 92.8167 43.2689 99.191 44.1267 101.258C45.199 103.841 50.4392 104.365 54.2798 104.365Z" fill="#C4E7FE"/>
<g filter="url(#filter0_d_367_133)">
<path d="M78.224 87.283C52.0333 84.9913 42.4819 98.4539 44.9382 101.94C50.6583 98.4141 58.2205 98.4287 63.4918 97.7593C71.7419 96.7117 77.4383 93.045 78.224 87.283Z" fill="#99D4FE"/>
</g>
<g filter="url(#filter1_d_367_133)">
<path d="M77.212 84.8279C88.4635 80.2811 87.6534 65.7388 86.7388 61.7981C75.4395 63.8976 71.1147 63.7686 58.7375 69.3639C52.8661 72.0181 32.6647 92.4193 44.8808 102.283C52.9682 88.61 67.2582 88.8503 77.212 84.8279Z" fill="#C1E5FE"/>
</g>
<g filter="url(#filter2_d_367_133)">
<path d="M53.0386 77.1141C47.6548 81.2487 42.5118 88.0183 41.6877 98.1542C40.1774 95.3701 39.5892 88.7108 40.0085 84.3788C42.3684 59.9916 72.7379 43.5884 80.9554 22.5144C83.1789 25.8661 89.2527 33.2108 87.9392 44.4764C85.2609 67.4477 65.8197 67.2985 53.0386 77.1141Z" fill="url(#paint0_linear_367_133)"/>
</g>
<defs>
<filter id="filter0_d_367_133" x="40.5662" y="87.0221" width="41.6578" height="22.9181" filterUnits="userSpaceOnUse" color-interpolation-filters="sRGB">
<feFlood flood-opacity="0" result="BackgroundImageFix"/>
<feColorMatrix in="SourceAlpha" type="matrix" values="0 0 0 0 0 0 0 0 0 0 0 0 0 0 0 0 0 0 127 0" result="hardAlpha"/>
<feOffset dy="4"/>
<feGaussianBlur stdDeviation="2"/>
<feComposite in2="hardAlpha" operator="out"/>
<feColorMatrix type="matrix" values="0 0 0 0 0 0 0 0 0 0.45098 0 0 0 0 1 0 0 0 0.33 0"/>
<feBlend mode="normal" in2="BackgroundImageFix" result="effect1_dropShadow_367_133"/>
<feBlend mode="normal" in="SourceGraphic" in2="effect1_dropShadow_367_133" result="shape"/>
</filter>
<filter id="filter1_d_367_133" x="38.0259" y="60.7981" width="52.1956" height="46.4846" filterUnits="userSpaceOnUse" color-interpolation-filters="sRGB">
<feFlood flood-opacity="0" result="BackgroundImageFix"/>
<feColorMatrix in="SourceAlpha" type="matrix" values="0 0 0 0 0 0 0 0 0 0 0 0 0 0 0 0 0 0 127 0" result="hardAlpha"/>
<feOffset dy="2"/>
<feGaussianBlur stdDeviation="1.5"/>
<feComposite in2="hardAlpha" operator="out"/>
<feColorMatrix type="matrix" values="0 0 0 0 0 0 0 0 0 0.64 0 0 0 0 1 0 0 0 0.4 0"/>
<feBlend mode="normal" in2="BackgroundImageFix" result="effect1_dropShadow_367_133"/>
<feBlend mode="normal" in="SourceGraphic" in2="effect1_dropShadow_367_133" result="shape"/>
</filter>
<filter id="filter2_d_367_133" x="36.8768" y="22.5144" width="54.2463" height="82.6398" filterUnits="userSpaceOnUse" color-interpolation-filters="sRGB">
<feFlood flood-opacity="0" result="BackgroundImageFix"/>
<feColorMatrix in="SourceAlpha" type="matrix" values="0 0 0 0 0 0 0 0 0 0 0 0 0 0 0 0 0 0 127 0" result="hardAlpha"/>
<feOffset dy="4"/>
<feGaussianBlur stdDeviation="1.5"/>
<feComposite in2="hardAlpha" operator="out"/>
<feColorMatrix type="matrix" values="0 0 0 0 0 0 0 0 0 0.64 0 0 0 0 1 0 0 0 0.4 0"/>
<feBlend mode="normal" in2="BackgroundImageFix" result="effect1_dropShadow_367_133"/>
<feBlend mode="normal" in="SourceGraphic" in2="effect1_dropShadow_367_133" result="shape"/>
</filter>
<linearGradient id="paint0_linear_367_133" x1="63.993" y1="22.5144" x2="41.7933" y2="95.3128" gradientUnits="userSpaceOnUse">
<stop stop-color="#F1FAFF"/>
<stop offset="1" stop-color="#F0F9FF"/>
</linearGradient>
</defs>
</svg>

<svg xmlns="http://www.w3.org/2000/svg" width="128" height="128" fill="none" xmlns:v="https://vecta.io/nano"><style><![CDATA[.B{color-interpolation-filters:sRGB}.C{flood-opacity:0}]]></style><path d="M54.28 104.365c7.315 0 14.21-8.006 15.518-11.113-8.083-.435-26.529 5.939-25.671 8.006 1.072 2.583 6.313 3.107 10.153 3.107z" fill="#c4e7fe"/><g filter="url(#A)"><path d="M78.224 87.283c-26.191-2.292-35.742 11.171-33.286 14.657 5.72-3.526 13.282-3.511 18.554-4.181 8.25-1.048 13.947-4.714 14.732-10.476z" fill="#99d4fe"/></g><g filter="url(#B)"><path d="M77.212 84.828c11.251-4.547 10.441-19.089 9.527-23.03-11.299 2.099-15.624 1.971-28.001 7.566-5.871 2.654-26.073 23.055-13.857 32.919C52.968 88.61 67.258 88.85 77.212 84.828z" fill="#c1e5fe"/></g><g filter="url(#C)"><path d="M53.039 77.114c-5.384 4.135-10.527 10.904-11.351 21.04-1.51-2.784-2.099-9.443-1.679-13.775 2.36-24.387 32.729-40.79 40.947-61.864 2.224 3.352 8.297 10.696 6.984 21.962-2.678 22.971-22.12 22.822-34.901 32.638z" fill="url(#D)"/></g><defs><filter id="A" x="40.566" y="87.022" width="41.658" height="22.918" filterUnits="userSpaceOnUse" class="B"><feFlood result="A" class="C"/><feColorMatrix in="SourceAlpha" values="0 0 0 0 0 0 0 0 0 0 0 0 0 0 0 0 0 0 127 0" result="B"/><feOffset dy="4"/><feGaussianBlur stdDeviation="2"/><feComposite in2="B" operator="out"/><feColorMatrix values="0 0 0 0 0 0 0 0 0 0.45098 0 0 0 0 1 0 0 0 0.33 0"/><feBlend in2="A"/><feBlend in="SourceGraphic"/></filter><filter id="B" x="38.026" y="60.798" width="52.196" height="46.485" filterUnits="userSpaceOnUse" class="B"><feFlood result="A" class="C"/><feColorMatrix in="SourceAlpha" values="0 0 0 0 0 0 0 0 0 0 0 0 0 0 0 0 0 0 127 0" result="B"/><feOffset dy="2"/><feGaussianBlur stdDeviation="1.5"/><feComposite in2="B" operator="out"/><feColorMatrix values="0 0 0 0 0 0 0 0 0 0.64 0 0 0 0 1 0 0 0 0.4 0"/><feBlend in2="A"/><feBlend in="SourceGraphic"/></filter><filter id="C" x="36.877" y="22.514" width="54.246" height="82.64" filterUnits="userSpaceOnUse" class="B"><feFlood result="A" class="C"/><feColorMatrix in="SourceAlpha" values="0 0 0 0 0 0 0 0 0 0 0 0 0 0 0 0 0 0 127 0" result="B"/><feOffset dy="4"/><feGaussianBlur stdDeviation="1.5"/><feComposite in2="B" operator="out"/><feColorMatrix values="0 0 0 0 0 0 0 0 0 0.64 0 0 0 0 1 0 0 0 0.4 0"/><feBlend in2="A"/><feBlend in="SourceGraphic"/></filter><linearGradient id="D" x1="63.993" y1="22.514" x2="41.793" y2="95.313" gradientUnits="userSpaceOnUse"><stop stop-color="#f1faff"/><stop offset="1" stop-color="#f0f9ff"/></linearGradient></defs></svg>
